X:337
T: ZU MAIEN DIE VOEGELCHEN SINGEN
N: E0960
O: Europa, Mitteleuropa, Deutschland, Rheinland, Bonn, Kessenich
R: Tanz - Lied, Reigen, Mai - Tanz
M: 3/8
L: 1/8
K: A
e | ede | =cde | dd=G | =cc
e | ede | =cde | dd=G | =cc
B | AAB | =ccB | A2G | AA
B | AAB | =ccB | A2G | AA

@@@ Tune index: 4650
